custom_files/u20.svg

﻿<?xml version="1.0" encoding="utf-8"?>
<svg version="1.1" xmlns:xlink="http://www.w3.org/1999/xlink" width="120px" height="80px" xmlns="http://www.w3.org/2000/svg">
  <defs>
    <filter x="-163px" y="110px" width="120px" height="80px" filterUnits="userSpaceOnUse" id="filter5">
      <feOffset dx="5" dy="5" in="SourceAlpha" result="shadowOffsetInner" />
      <feGaussianBlur stdDeviation="5" in="shadowOffsetInner" result="shadowGaussian" />
      <feComposite in2="shadowGaussian" operator="atop" in="SourceAlpha" result="shadowComposite" />
      <feColorMatrix type="matrix" values="0 0 0 0 0  0 0 0 0 0  0 0 0 0 0  0 0 0 0.34901960784313724 0  " in="shadowComposite" />
    </filter>
    <g id="widget6">
      <path d="M -157.5 124.18599434057003  L -148.81400565942997 115.5  L -67.18599434057003 115.5  L -58.5 124.18599434057003  L -58.5 165.81400565942997  L -67.18599434057003 174.5  L -148.81400565942997 174.5  L -157.5 165.81400565942997  L -157.5 124.18599434057003  Z " fill-rule="nonzero" fill="#484646" stroke="none" />
      <path d="M -157.5 124.18599434057003  L -148.81400565942997 115.5  L -67.18599434057003 115.5  L -58.5 124.18599434057003  L -58.5 165.81400565942997  L -67.18599434057003 174.5  L -148.81400565942997 174.5  L -157.5 165.81400565942997  L -157.5 124.18599434057003  Z " stroke-width="1" stroke="#797979" fill="none" />
    </g>
  </defs>
  <g transform="matrix(1 0 0 1 163 -110 )">
    <use xlink:href="#widget6" filter="url(#filter5)" />
    <use xlink:href="#widget6" />
  </g>
</svg>

<svg xmlns:xlink="http://www.w3.org/1999/xlink" width="120" height="80" xmlns="http://www.w3.org/2000/svg"><defs><filter x="-163" y="110" width="120" height="80" filterUnits="userSpaceOnUse" id="b"><feOffset dx="5" dy="5" in="SourceAlpha" result="shadowOffsetInner"/><feGaussianBlur stdDeviation="5" in="shadowOffsetInner" result="shadowGaussian"/><feComposite in2="shadowGaussian" operator="atop" in="SourceAlpha" result="shadowComposite"/><feColorMatrix values="0 0 0 0 0 0 0 0 0 0 0 0 0 0 0 0 0 0 0.34901960784313724 0" in="shadowComposite"/></filter><g id="a"><path d="m-157.5 124.186 8.686-8.686h81.628l8.686 8.686v41.628l-8.686 8.686h-81.628l-8.686-8.686v-41.628z" fill="#484646"/><path d="m-157.5 124.186 8.686-8.686h81.628l8.686 8.686v41.628l-8.686 8.686h-81.628l-8.686-8.686v-41.628z" stroke="#797979" fill="none"/></g></defs><g transform="translate(163 -110)"><use xlink:href="#a" filter="url(#b)"/><use xlink:href="#a"/></g></svg>
